X: 1
T: Let's Meet Again
C: Tom Barnes
R: reel
Z: 2006 John Chambers <jc:trillian.mit.edu>
M: C|
L: 1/8
K: A
E2 \
| "A"A2cB A2A2 | "Bm"B2B2 "E7"e3E | "A"A2cB A2A2 | "D"d4 "E7"B4 \
| "A"A2cB A2A2 | "E7"B2B2     e4  | "D"fedc "E7"B2B2 | "A"A4- A2 |]
e2 \
| "A"a2ag f2e2 | "Bm"d2"A"e2 "D"f2"E"g2 | "A"a2ag "D"f2e2 | "D7"d2c2 B4 \
| "A"A2cB A2A2 | "Bm"d2"A"e2 "D"f2"E"g2 | "D"fedc "E7"B2B2 | "A"A4- A2 |]
